client/media/icons/_21_save.svg

<?xml version="1.0" encoding="UTF-8" standalone="no"?><!DOCTYPE svg PUBLIC "-//W3C//DTD SVG 1.1//EN" "http://www.w3.org/Graphics/SVG/1.1/DTD/svg11.dtd"><svg width="100%" height="100%" viewBox="0 0 48 48" version="1.1" xmlns="http://www.w3.org/2000/svg" xmlns:xlink="http://www.w3.org/1999/xlink" xml:space="preserve" xmlns:serif="http://www.serif.com/" style="fill-rule:evenodd;clip-rule:evenodd;stroke-linejoin:round;stroke-miterlimit:2;"><path d="M48,10.159l0,33.688c0,1.152 -0.404,2.133 -1.212,2.941c-0.809,0.808 -1.789,1.212 -2.941,1.212l-39.693,-0c-1.153,-0 -2.133,-0.404 -2.942,-1.212c-0.808,-0.809 -1.212,-1.789 -1.212,-2.941l0,-39.694c0,-1.152 0.404,-2.132 1.212,-2.941c0.809,-0.808 1.789,-1.212 2.942,-1.212l33.687,0l10.159,10.159Zm-2.308,1.044l-8.895,-8.895l-32.643,-0c-0.538,-0 -0.981,0.173 -1.327,0.519c-0.346,0.346 -0.519,0.788 -0.519,1.326l-0,39.694c-0,0.537 0.173,0.98 0.519,1.326c0.346,0.346 0.789,0.519 1.327,0.519l39.693,0c0.538,0 0.98,-0.173 1.326,-0.519c0.346,-0.346 0.519,-0.789 0.519,-1.326l0,-32.644Zm-21.71,26.211c1.492,-0 2.774,-0.53 3.845,-1.59c1.072,-1.06 1.608,-2.335 1.608,-3.827c-0,-1.493 -0.53,-2.774 -1.59,-3.846c-1.06,-1.071 -2.335,-1.607 -3.827,-1.607c-1.492,-0 -2.774,0.53 -3.845,1.59c-1.072,1.059 -1.607,2.335 -1.607,3.827c-0,1.492 0.529,2.774 1.589,3.846c1.06,1.071 2.336,1.607 3.827,1.607Zm-15.91,-20.925l22.176,-0l0,-8.418l-22.176,0l-0,8.418Zm-5.764,-14.181l-0,43.384l-0,-43.384Z" style="fill-rule:nonzero;"/></svg>

<?xml version="1.0" encoding="UTF-8" standalone="no"?>
<!DOCTYPE svg PUBLIC "-//W3C//DTD SVG 1.1//EN" "http://www.w3.org/Graphics/SVG/1.1/DTD/svg11.dtd">
<svg width="100%" height="100%" viewBox="0 0 40 40" version="1.1" xmlns="http://www.w3.org/2000/svg" xmlns:xlink="http://www.w3.org/1999/xlink" xml:space="preserve" xmlns:serif="http://www.serif.com/" style="fill-rule:evenodd;clip-rule:evenodd;stroke-linejoin:round;stroke-miterlimit:2;">
    <g transform="matrix(0.833333,0,0,0.833333,2.92359e-15,7.03141e-16)">
        <path d="M48,10.159L48,43.847C48,44.999 47.596,45.98 46.788,46.788C45.979,47.596 44.999,48 43.847,48L4.154,48C3.001,48 2.021,47.596 1.212,46.788C0.404,45.979 -0,44.999 -0,43.847L-0,4.153C-0,3.001 0.404,2.021 1.212,1.212C2.021,0.404 3.001,-0 4.154,-0L37.841,-0L48,10.159ZM45.692,11.203L36.797,2.308L4.154,2.308C3.616,2.308 3.173,2.481 2.827,2.827C2.481,3.173 2.308,3.615 2.308,4.153L2.308,43.847C2.308,44.384 2.481,44.827 2.827,45.173C3.173,45.519 3.616,45.692 4.154,45.692L43.847,45.692C44.385,45.692 44.827,45.519 45.173,45.173C45.519,44.827 45.692,44.384 45.692,43.847L45.692,11.203ZM23.982,37.414C25.474,37.414 26.756,36.884 27.827,35.824C28.899,34.764 29.435,33.489 29.435,31.997C29.435,30.504 28.905,29.223 27.845,28.151C26.785,27.08 25.51,26.544 24.018,26.544C22.526,26.544 21.244,27.074 20.173,28.134C19.101,29.193 18.566,30.469 18.566,31.961C18.566,33.453 19.095,34.735 20.155,35.807C21.215,36.878 22.491,37.414 23.982,37.414ZM8.072,16.489L30.248,16.489L30.248,8.071L8.072,8.071L8.072,16.489ZM2.308,2.308L2.308,45.692L2.308,2.308Z" style="fill-rule:nonzero;"/>
    </g>
</svg>
